icon/ir/google-drive-sync.svg

<svg stroke-width="1.5" viewBox="0 0 24 24" fill="none" xmlns="http://www.w3.org/2000/svg" height="1em" width="1em">
  <path d="M9.14286 3.00375L14.8571 3M9.14286 3.00375L2 15.0038M9.14286 3.00375L14.0446 12.5M14.8571 3L5.575 21M14.8571 3L20.2126 12M5.575 21L2 15.0038M5.575 21H12.0036M2 15.0038H12.5" stroke="currentColor" stroke-linecap="round" stroke-linejoin="round"/>
  <path d="M22.6663 17.6667C22.0476 16.097 20.6344 15 18.9901 15C17.2317 15 15.7376 16.2545 15.1967 18" stroke="currentColor" stroke-linecap="round" stroke-linejoin="round"/>
  <path d="M20.9951 17.7722H22.4C22.7314 17.7722 23 17.5036 23 17.1722V15.55" stroke="currentColor" stroke-linecap="round" stroke-linejoin="round"/>
  <path d="M15.3337 20.3333C15.9524 21.903 17.3656 23 19.0099 23C20.7683 23 22.2624 21.7455 22.8033 20" stroke="currentColor" stroke-linecap="round" stroke-linejoin="round"/>
  <path d="M17.0049 20.2278H15.6C15.2686 20.2278 15 20.4964 15 20.8278V22.45" stroke="currentColor" stroke-linecap="round" stroke-linejoin="round"/>
</svg>

<svg width="24" height="24" stroke-width="1.5" fill="none" xmlns="http://www.w3.org/2000/svg"><path d="M9.143 3.004 14.857 3m-5.714.004L2 15.004m7.143-12 4.902 9.496m.812-9.5L5.575 21m9.282-18 5.356 9M5.575 21 2 15.004M5.575 21h6.429M2 15.004h10.5M22.666 17.667C22.048 16.097 20.634 15 18.99 15c-1.758 0-3.252 1.255-3.793 3" stroke="currentColor" stroke-linecap="round" stroke-linejoin="round"/><path d="M20.995 17.772H22.4a.6.6 0 0 0 .6-.6V15.55M15.334 20.333C15.952 21.903 17.366 23 19.01 23c1.758 0 3.252-1.255 3.793-3" stroke="currentColor" stroke-linecap="round" stroke-linejoin="round"/><path d="M17.005 20.228H15.6a.6.6 0 0 0-.6.6v1.622" stroke="currentColor" stroke-linecap="round" stroke-linejoin="round"/></svg>
